!!!OTL: Muede kehrt ein Wandersmann zurueck nach der Heimat seiner Liebe Glueck
!!!ARE: Europa, Mitteleuropa, Deutschland, ???
!!!SCT: D1011
!!!YEM: Copyright 1995, estate of Helmut Schaffrath.
**kern
*ICvox
*Ivox
*M4/4
*k[f#]
*G:
{8d
8d
=1
4.b
8a
8g
8f#
8g
8b
=2
2d
4r}
{8f#
8g
=3
4.a
8g
8f#
8a
8ee
8dd
=4
2b
4r}
{8g
8a
=5
4.b
8dd
8cc
8b
8a
8g
=6
2e
4r}
{8g
8e
=7
4.d
8g
8f#
8a
8ee
8dd
=8
2b
4r}
{8g
8a
=9
4.b
8dd
8cc
8b
8a
8g
=10
2e
4r}
{8g
8e
=11
4.d
8g
8f#
8a
8ee
8dd
=12
2b
4r}
==
!!!AGN: Liebes - Lied
!! DVA-Signatur A 57 199
!!!ONB: ESAC (Essen Associative Code) Database: DVA
!!!AMT: simple quadruple
!!!AIN: vox
!!!EED: Helmut Schaffrath
!!!EEV: 1.0
*-
